X: 1
T:Le crocodile
C:Maxou Heintzen
R:Bourree
A:France
Z:abc transcription Simon Wascher
N:originally in D?
M:3/8
L:1/16
K:G
GA |\
BABd^cA | B4de | =f2e2d2 | =f2e2d2 | \
BABd^cA | B4de | =f2e2d2 | B4 :|
|: d2 |\
g4fe | d4cB | ABcdef | e2d2B2 | \
g4fe | d4cB | ABcdef | g4 :|
<end>
<start>
